archdroid-icon-theme/Archdroid-Red/apps/scalable/cs-tablet.svg

<svg fill="#F44336" height="32" viewBox="0 0 44 32" width="44" xmlns="http://www.w3.org/2000/svg"><path d="m40 0h-36c-2.21 0-4 1.79-4 4v24c0 2.21 1.79 4 4 4h36c2.21 0 3.98-1.79 3.98-4l.02-24c0-2.21-1.79-4-4-4zm-4 28h-28v-24h28z" fill="#F44336"/></svg>

<svg fill="#F44336" height="32" version="1.1" viewBox="0 0 44 32" width="44" xmlns="http://www.w3.org/2000/svg"><path d="M40 0L4 0C1.79 0 0 1.79 0 4l0 24c0 2.21 1.79 4 4 4l36 0c2.21 0 3.98-1.79 3.98-4L44 4C44 1.79 42.21 0 40 0ZM36 28L8 28 8 4 36 4 36 28Z"/></svg>
